antibot/app/images/dist/clicks/people-icon.svg

<svg width="54" height="45" viewBox="0 0 54 45" fill="none" xmlns="http://www.w3.org/2000/svg">
<path d="M26.9987 18C29.3856 18 31.6748 17.0518 33.3626 15.364C35.0505 13.6761 35.9987 11.3869 35.9987 9C35.9987 6.61305 35.0505 4.32387 33.3626 2.63604C31.6748 0.948212 29.3856 0 26.9987 0C24.6117 0 22.3226 0.948212 20.6347 2.63604C18.9469 4.32387 17.9987 6.61305 17.9987 9C17.9987 11.3869 18.9469 13.6761 20.6347 15.364C22.3226 17.0518 24.6117 18 26.9987 18ZM14.9987 15C14.9987 16.5913 14.3665 18.1174 13.2413 19.2426C12.1161 20.3679 10.59 21 8.99869 21C7.40739 21 5.88127 20.3679 4.75605 19.2426C3.63083 18.1174 2.99869 16.5913 2.99869 15C2.99869 13.4087 3.63083 11.8826 4.75605 10.7574C5.88127 9.63214 7.40739 9 8.99869 9C10.59 9 12.1161 9.63214 13.2413 10.7574C14.3665 11.8826 14.9987 13.4087 14.9987 15ZM1.46869 36.978C0.956546 36.6869 0.573023 36.2134 0.394688 35.652C-0.133895 33.94 -0.139438 32.1092 0.378769 30.394C0.896975 28.6788 1.91534 27.1573 3.30347 26.0244C4.69159 24.8915 6.38628 24.1987 8.17052 24.0347C9.95476 23.8707 11.7473 24.2431 13.3187 25.104C10.0896 28.2773 8.06849 32.4776 7.60369 36.981C7.53469 37.647 7.56169 38.307 7.67869 38.943C5.48917 38.7537 3.36857 38.0827 1.46869 36.978ZM46.3187 38.94C48.508 38.7516 50.6286 38.0816 52.5287 36.978C53.0397 36.6864 53.4221 36.2129 53.5997 35.652C54.1291 33.9398 54.1353 32.1085 53.6175 30.3928C53.0996 28.677 52.0813 27.155 50.693 26.0216C49.3047 24.8882 47.6096 24.1951 45.825 24.0311C44.0403 23.8671 42.2473 24.2396 40.6757 25.101C43.9076 28.2742 45.9309 32.4757 46.3967 36.981C46.4635 37.6354 46.4373 38.296 46.3187 38.943V38.94ZM50.9987 15C50.9987 16.5913 50.3665 18.1174 49.2413 19.2426C48.1161 20.3679 46.59 21 44.9987 21C43.4074 21 41.8813 20.3679 40.756 19.2426C39.6308 18.1174 38.9987 16.5913 38.9987 15C38.9987 13.4087 39.6308 11.8826 40.756 10.7574C41.8813 9.63214 43.4074 9 44.9987 9C46.59 9 48.1161 9.63214 49.2413 10.7574C50.3665 11.8826 50.9987 13.4087 50.9987 15ZM12.9107 39.57C12.6148 39.305 12.3854 38.9742 12.2411 38.6041C12.0967 38.2341 12.0414 37.8353 12.0797 37.44C12.4613 33.7484 14.1978 30.3294 16.9537 27.8438C19.7095 25.3581 23.289 23.9823 27.0002 23.9823C30.7114 23.9823 34.2909 25.3581 37.0467 27.8438C39.8026 30.3294 41.5391 33.7484 41.9207 37.44C41.9592 37.8354 41.904 38.2342 41.7596 38.6043C41.6153 38.9743 41.3857 39.3052 41.0897 39.57C37.2323 43.0708 32.2078 45.007 26.9987 45C21.7905 45.0066 16.7671 43.0704 12.9107 39.57Z" fill="#2175D4"/>
</svg>

<svg width="54" height="45" fill="none" xmlns="http://www.w3.org/2000/svg"><path d="M26.999 18a9 9 0 1 0 0-18 9 9 0 0 0 0 18Zm-12-3a6 6 0 1 1-12 0 6 6 0 0 1 12 0ZM1.469 36.978a2.34 2.34 0 0 1-1.074-1.326 9 9 0 0 1 12.924-10.548 19.452 19.452 0 0 0-5.715 11.877 6.906 6.906 0 0 0 .075 1.962 14.91 14.91 0 0 1-6.21-1.965Zm44.85 1.962a14.91 14.91 0 0 0 6.21-1.962 2.34 2.34 0 0 0 1.07-1.326 9 9 0 0 0-12.923-10.551 19.453 19.453 0 0 1 5.72 11.88 6.94 6.94 0 0 1-.077 1.962v-.003ZM50.999 15a6 6 0 1 1-12 0 6 6 0 0 1 12 0ZM12.91 39.57a2.53 2.53 0 0 1-.831-2.13 15 15 0 0 1 29.84 0 2.529 2.529 0 0 1-.83 2.13A20.925 20.925 0 0 1 26.999 45a20.922 20.922 0 0 1-14.088-5.43Z" fill="#2175D4"/></svg>
